X: 23050
T: Last Train From Loughrea
R: jig
M: 6/8
K: Dmajor
|:DEF DEF|A2 A FAd|fed e2 d|fed ~B2 A|
~d3 d2 d|dcB A2 D|DEF A2 F|1 FED D3:|2 FED D2 E||
|:F2 F FED|~F3 FED|FAF FED|FAA ~B2 A|
~d3 d2 d|dcB A2 D|DEF A2 F|1 FED D3:|2 FED D2 a||
|:afd dcd|afd def|gfe edc|dcB ABc|
~d3 d2 d|dcB A2 D|DEF A2 F|1 FED D2 a:|2 FED D2 E||
|:FAA ~B2 A|FAA ~B2 A|FAA FAA|def ecA|
~d3 d2 d|dcB A2 D|DEF A2 F|1 FED D2 E:|2 FED D3||

